icons/gitkraken/gitkraken-original.svg

<?xml version="1.0" encoding="UTF-8" standalone="no"?>
<svg
   id="Logos"
   viewBox="0 0 128 128"
   version="1.1"
   sodipodi:docname="gitkraken-original.svg"
   width="128"
   height="128"
   inkscape:version="1.1.2 (0a00cf5339, 2022-02-04)"
   xmlns:inkscape="http://www.inkscape.org/namespaces/inkscape"
   xmlns:sodipodi="http://sodipodi.sourceforge.net/DTD/sodipodi-0.dtd"
   xmlns="http://www.w3.org/2000/svg"
   xmlns:svg="http://www.w3.org/2000/svg">
  <sodipodi:namedview
     id="namedview27"
     pagecolor="#505050"
     bordercolor="#eeeeee"
     borderopacity="1"
     inkscape:pageshadow="0"
     inkscape:pageopacity="0"
     inkscape:pagecheckerboard="0"
     showgrid="false"
     inkscape:zoom="2.8284271"
     inkscape:cx="83.615378"
     inkscape:cy="106.06602"
     inkscape:window-width="1920"
     inkscape:window-height="1056"
     inkscape:window-x="0"
     inkscape:window-y="0"
     inkscape:window-maximized="1"
     inkscape:current-layer="Logos" />
  <defs
     id="defs4">
    <style
       id="style2">.cls-1{fill:#0b161d;}.cls-2{fill:#179287;}</style>
  </defs>
  <path
     class="cls-2"
     d="m 123.92039,33.218704 a 2.5318203,2.5318203 0 0 0 -4.92299,0.914268 1.7582085,1.7582085 0 0 0 0.14066,0.84394 58.09121,58.09121 0 0 1 3.7274,20.746862 A 58.935151,58.935151 0 0 1 71.736763,114.0963 V 86.597915 a 42.337662,42.337662 0 0 0 5.133974,-1.336238 V 108.32938 A 54.152824,54.152824 0 0 0 90.233118,8.3224713 a 2.6021486,2.6021486 0 0 0 -3.586746,1.1252531 3.1647754,3.1647754 0 0 0 -0.21098,1.1252536 2.5318203,2.5318203 0 0 0 1.265905,2.250507 49.018854,49.018854 0 0 1 -5.696595,88.543385 V 80.901319 a 7.8767743,7.8767743 0 0 0 5.485614,-7.454804 7.7361176,7.7361176 0 0 0 -3.86806,-6.821849 c 1.828534,-17.652413 9.916292,-13.010743 9.916292,-18.63701 v -3.235105 c 0,-8.509728 -19.55128,-35.9377813 -28.693962,-36.6410646 h -1.68788 C 54.014021,8.8147697 34.462742,36.242823 34.462742,44.752551 v 3.235105 c 0,5.626267 8.08776,0.984597 9.916296,18.63701 a 7.8767743,7.8767743 0 0 0 1.68788,14.276653 V 101.36687 A 49.018854,49.018854 0 0 1 40.299994,12.823485 2.5318203,2.5318203 0 0 0 41.35492,9.4477244 2.4614919,2.4614919 0 0 0 39.034085,8.0411577 2.3208353,2.3208353 0 0 0 37.838503,8.3224713 54.152824,54.152824 0 0 0 51.200888,108.32938 V 85.261677 a 42.337662,42.337662 0 0 0 5.133968,1.336238 V 114.0963 A 58.935151,58.935151 0 0 1 5.135823,55.723774 59.638434,59.638434 0 0 1 8.8632259,34.976912 2.5318203,2.5318203 0 0 0 7.5269869,31.741809 2.8131336,2.8131336 0 0 0 6.4720619,31.530824 2.6021486,2.6021486 0 0 0 4.0808985,33.218704 63.99879,63.99879 0 0 0 61.398497,119.65223 V 87.301199 h 5.204297 V 119.65223 A 63.928463,63.928463 0 0 0 127.99944,55.723774 62.662552,62.662552 0 0 0 123.92039,33.218704 Z M 75.815802,69.719113 a 5.2746256,5.2746256 0 1 1 7.454805,7.454805 5.2746256,5.2746256 0 1 1 -7.454805,-7.454805 z m -23.630317,7.454805 a 5.2042972,5.2042972 0 0 1 -7.384477,0 5.2746256,5.2746256 0 0 1 0,-7.454805 5.2042972,5.2042972 0 0 1 7.384477,0 5.2746256,5.2746256 0 0 1 0,7.454805 z"
     id="path24"
     style="stroke-width:0.703283" />
</svg>

<svg width="128" height="128" xmlns="http://www.w3.org/2000/svg">
  <path
    d="M123.92 33.219a2.532 2.532 0 0 0-4.923.914 1.758 1.758 0 0 0 .141.844 58.091 58.091 0 0 1 3.727 20.747 58.935 58.935 0 0 1-51.128 58.372V86.598a42.338 42.338 0 0 0 5.134-1.336v23.067A54.153 54.153 0 0 0 90.233 8.322a2.602 2.602 0 0 0-3.587 1.126 3.165 3.165 0 0 0-.21 1.125 2.532 2.532 0 0 0 1.265 2.25 49.019 49.019 0 0 1-5.696 88.544V80.9a7.877 7.877 0 0 0 5.485-7.454 7.736 7.736 0 0 0-3.868-6.822c1.829-17.653 9.917-13.011 9.917-18.637v-3.235c0-8.51-19.552-35.938-28.694-36.642h-1.688c-9.143.704-28.694 28.132-28.694 36.642v3.235c0 5.626 8.088.984 9.916 18.637A7.877 7.877 0 0 0 46.067 80.9v20.466A49.019 49.019 0 0 1 40.3 12.823a2.532 2.532 0 0 0 1.055-3.375 2.461 2.461 0 0 0-2.32-1.407 2.32 2.32 0 0 0-1.196.281A54.153 54.153 0 0 0 51.2 108.33V85.262a42.338 42.338 0 0 0 5.134 1.336v27.498a58.935 58.935 0 0 1-51.2-58.372 59.638 59.638 0 0 1 3.728-20.747 2.532 2.532 0 0 0-1.336-3.235 2.813 2.813 0 0 0-1.055-.211 2.602 2.602 0 0 0-2.391 1.688 63.999 63.999 0 0 0 57.317 86.433v-32.35h5.205v32.35a63.928 63.928 0 0 0 61.396-63.928 62.663 62.663 0 0 0-4.079-22.505zm-48.104 36.5a5.275 5.275 0 1 1 7.455 7.455 5.275 5.275 0 1 1-7.455-7.455zm-23.63 7.455a5.204 5.204 0 0 1-7.385 0 5.275 5.275 0 0 1 0-7.455 5.204 5.204 0 0 1 7.384 0 5.275 5.275 0 0 1 0 7.455z"
    style="stroke-width:.703283;fill:#179287" />
</svg>
